X:224070
T: Miss Maule's Strathspey
C: Robert Mackintosh
C: Robert Petrie Colln. Vol II, from Matt Petrie
C: arr. T. Traub 8-25-2004
M: 4/4
L: 1/8
K: A
|: E |\
"A"c2 A>E "D"F<A E<C |    c2     A>E "Bm"FB "E"Bd |\
"A"c>B A>E   F<A E<C | "D"D>F "E"E<G "A"A<A    A :|
e |\
"A"c<e a>e "D"f>a e<d |    c<e    a>c "E"d<B Bc/d/ |\
"A"c<e a>e "D"f>a e<c | "D"d<f "E"e>d "A"c<A A ||
e |\
"A"c<e    a>e "D"f>a    e<d |    c<e a>c "E"d<B Bc/d/ |\
"A"c<e "D"d<f "A"e<a "E"g<b | "E"a<f e>d "A"cA  A |]

